X:18
T:Roy O’More. JGi.018
S:Joshua Gibbons MS,1823,Tealby,Lincs.
M:6/8
L:1/8
Q:3/8=110
R:jig
O:Tealby,Lincolnshire
Z:VMP/R.Greig, 2009
K:G
e|dGG BGG|dGGc2e|dGG cGG|FFA A2e|dGG BGG|Bcd e2d|Bcd def|gGG G2:|
|:d|gfe dcB|BAGG2F|EFG GAB|Be^de2d|gfe edc|cBAG2F|EFG GAB|Be^de2d:|

